X: 1
T: The Phoenix
R: reel
M: 4/4
L: 1/8
K: Dmaj
ag|:f2df edcA|B2dB ABde|fd~d2 edcA|B2dB ABde|
fedf edcA|BcdB AGFE|Dddc defd|1 edcA dfag:|2 edce dBcA||
|:FBBA Bcde|~f3d edcA|FBBA Bcde|f2df edcA|
B2FB ~B2GB|BcdB cBAc|BG~G2 Bcde|1 f2ec dBcA:|2 faec dfag||


Tune 1105	Setting 28548

